icons/svg/shopping/farm.svg

<?xml version="1.0" encoding="UTF-8" standalone="no"?>
<!-- Created with Inkscape (http://www.inkscape.org/) -->

<svg
   xmlns:dc="http://purl.org/dc/elements/1.1/"
   xmlns:cc="http://creativecommons.org/ns#"
   xmlns:rdf="http://www.w3.org/1999/02/22-rdf-syntax-ns#"
   xmlns:svg="http://www.w3.org/2000/svg"
   xmlns="http://www.w3.org/2000/svg"
   xmlns:sodipodi="http://sodipodi.sourceforge.net/DTD/sodipodi-0.dtd"
   xmlns:inkscape="http://www.inkscape.org/namespaces/inkscape"
   version="1.0"
   width="580"
   height="580"
   id="svg2"
   sodipodi:version="0.32"
   inkscape:version="0.48.4 r9939"
   sodipodi:docname="farm.svg"
   inkscape:output_extension="org.inkscape.output.svg.inkscape">
  <metadata
     id="metadata10">
    <rdf:RDF>
      <cc:Work
         rdf:about="">
        <dc:format>image/svg+xml</dc:format>
        <dc:type
           rdf:resource="http://purl.org/dc/dcmitype/StillImage" />
        <cc:license
           rdf:resource="http://web.resource.org/cc/PublicDomain" />
        <dc:language>en</dc:language>
        <dc:title />
      </cc:Work>
    </rdf:RDF>
  </metadata>
  <sodipodi:namedview
     inkscape:window-height="1004"
     inkscape:window-width="1920"
     inkscape:pageshadow="2"
     inkscape:pageopacity="0.0"
     guidetolerance="10.0"
     gridtolerance="10.0"
     objecttolerance="10.0"
     borderopacity="1.0"
     bordercolor="#666666"
     pagecolor="#ffffff"
     id="base"
     showgrid="false"
     inkscape:zoom="0.5"
     inkscape:cx="778.18988"
     inkscape:cy="576.60474"
     inkscape:window-x="1680"
     inkscape:window-y="0"
     inkscape:current-layer="svg2"
     inkscape:window-maximized="1" />
  <defs
     id="defs4">
    <clipPath
       id="clipoutline2"
       clipPathUnits="userSpaceOnUse">
      <path
         d="M 55.8,12 L 56.56,12.16 C 65.4,9.22 85.24,20.8 80.82,31.12 C 79.7,32.74 79.89,35.62 81.24,37.43 L 56.43,62.25 C 55.04,60.86 51.95,60.89 50.53,62.25 L 9.5,101.63 C 5.76,105.22 8.7,108.27 10.28,109.88 L 17.64,117.24 C 19.25,118.84 23.5,121 26.52,117.8 L 65.24,76.99 C 66.59,75.57 66.6,72.52 65.24,71.12 C 65.24,71.12 65.25,71.1 65.24,71.1 L 90.15,46.2 C 92.78,48.57 95.263827,48.774854 97.62,48.13 C 102.17057,46.884568 104.70725,51.336643 107.43,54.59 L 106.2,55.8 C 104.38,57.64 104.55,60.74 106.59,62.78 C 108.63,64.82 111.74,64.99 113.56,63.17 L 121.7,55.04 C 123.52,53.2 123.35,50.1 121.3,48.07 C 119.46,46.22 116.79,45.98 114.93,47.3 C 109.35,41.04 112.28,40.1 104.92,31.95 L 91.13,17.86 C 81.2,8.12 68.3,8.13 55.8,12 z"
         id="outline2" />
    </clipPath>
    <clipPath
       id="clipoutline1"
       clipPathUnits="userSpaceOnUse">
      <path
         d="M 22.42,17.2 L 35.38,30.15 L 32.88,38.93 L 24.1,41.43 L 11.14,28.47 L 5.28,34.33 L 20.17,55.79 L 37.73,52.45 L 99.36,118.07 C 108.8,127.58 121.53,113.32 112.7,105.2 L 46.85,42.92 L 50.86,25.16 L 28.72,10.89 L 22.42,17.2 z M 103.48,109.17 C 105.16,107.49 107.88,107.49 109.56,109.17 C 111.24,110.85 111.24,113.57 109.56,115.25 C 107.88,116.92 105.16,116.92 103.48,115.25 C 101.8,113.57 101.8,110.85 103.48,109.17 z"
         id="outline1" />
    </clipPath>
    <inkscape:perspective
       sodipodi:type="inkscape:persp3d"
       inkscape:vp_x="0 : 290 : 1"
       inkscape:vp_y="0 : 1000 : 0"
       inkscape:vp_z="580 : 290 : 1"
       inkscape:persp3d-origin="290 : 193.33333 : 1"
       id="perspective12" />
    <style
       type="text/css"
       id="style6">
   
    .fil0 {fill:#EF7900}
   
  </style>
    <inkscape:perspective
       id="perspective6807"
       inkscape:persp3d-origin="29.116032 : 19.410688 : 1"
       inkscape:vp_z="58.232063 : 29.116032 : 1"
       inkscape:vp_y="0 : 1000 : 0"
       inkscape:vp_x="0 : 29.116032 : 1"
       sodipodi:type="inkscape:persp3d" />
    <inkscape:perspective
       id="perspective6954"
       inkscape:persp3d-origin="290 : 193.33333 : 1"
       inkscape:vp_z="580 : 290 : 1"
       inkscape:vp_y="0 : 1000 : 0"
       inkscape:vp_x="0 : 290 : 1"
       sodipodi:type="inkscape:persp3d" />
    <marker
       viewBox="0 0 10 10"
       refY="5"
       refX="10"
       orient="auto"
       markerWidth="4"
       markerUnits="strokeWidth"
       markerHeight="3"
       id="ArrowStart">
      <path
         id="path2295"
         d="M 10 0 L 0 5 L 10 10 z" />
    </marker>
    <marker
       viewBox="0 0 10 10"
       refY="5"
       refX="0"
       orient="auto"
       markerWidth="4"
       markerUnits="strokeWidth"
       markerHeight="3"
       id="ArrowEnd">
      <path
         id="path2292"
         d="M 0 0 L 10 5 L 0 10 z" />
    </marker>
    <inkscape:perspective
       id="perspective7597"
       inkscape:persp3d-origin="178.5405 : 158.483 : 1"
       inkscape:vp_z="357.08099 : 237.7245 : 1"
       inkscape:vp_y="0 : 1000 : 0"
       inkscape:vp_x="0 : 237.7245 : 1"
       sodipodi:type="inkscape:persp3d" />
  </defs>
  <g
     id="g1327"
     transform="translate(0.5,-0.5)">
    <path
       d="M 66.275,1.768 C 24.94,1.768 1.704,23.139 1.704,66.804 l 0,450.123 c 0,40.844 20.894,62.229 62.192,62.229 l 452.024,0 c 41.307,0 62.229,-20.316 62.229,-62.229 l 0,-450.123 c 0,-42.601 -20.922,-65.036 -63.522,-65.036 -0.003,0 -448.494,-0.143 -448.352,0 z"
       style="fill:#111111;stroke:#eeeeee;stroke-width:3.40799999"
       id="path1329"
       inkscape:connector-curvature="0" />
  </g>
  <g
     id="g2319"
     transform="translate(879.29125,36.805119)">
    <path
       id="path2323"
       style="fill:#ffffff;stroke:none"
       d="" />
  </g>
  <g
     id="g2325"
     transform="translate(879.29125,36.805119)">
    <path
       id="path2329"
       style="fill:#ffffff;stroke:none"
       d="" />
  </g>
  <path
     inkscape:connector-curvature="0"
     d="m 281.64402,239.56184 c 0,84.69602 -56.21726,130.39691 -109.11021,130.39691 -52.89296,0 -109.110208,-45.70089 -109.110208,-130.39691 0,-81.13096 47.661268,-175.427229 109.110208,-175.427229 61.44894,0 109.11021,94.304759 109.11021,175.427229 z"
     id="path3"
     style="fill:#ffffff;fill-opacity:1;stroke:none" />
  <path
     inkscape:connector-curvature="0"
     d="m 497.68592,311.64701 c -14.89382,-62.60538 -62.04394,-78.19213 -87.93036,-77.44835 -1.73144,0.0497 -3.32946,0.17439 -4.75525,0.35324 -29.62583,3.55556 -62.41376,64.84334 -70.63707,110.12122 -1.18417,6.53229 -2.30694,12.6887 -3.39085,18.14163 -7.05194,33.73111 -6.64363,53.09247 -24.44205,72.61298 -14.17105,15.55013 -44.03353,61.37975 -42.98697,73.13191 1.61042,22.23823 62.00056,21.62551 74.08788,21.27821 0,0 0,0 0.006,-3.7e-4 14.89436,-0.42795 34.47654,-6.55682 46.35808,-10.95713 66.16173,-21.64516 156.03705,-85.58684 163.06763,-135.59585 2.70876,-19.26417 -3.77088,-47.17156 -49.37761,-71.63768 z M 397.76865,293.4416 c 6.43935,-14.77045 21.70617,-21.21488 34.7621,-14.72627 13.08058,7.34587 17.88411,25.22515 11.43621,39.99585 -6.43936,14.77047 -21.6976,21.21463 -34.75354,14.72603 -13.08057,-7.34586 -17.88412,-25.22516 -11.44477,-39.99561 z"
     id="path5"
     style="fill:#ffffff;fill-opacity:1"
     sodipodi:nodetypes="cscccccccccccscccs" />
</svg>

<svg width="580" height="580" viewBox="0 0 580 580" fill="none" xmlns="http://www.w3.org/2000/svg">
<g clip-path="url(#clip0)">
<path d="M66.7751 1.26766C25.4401 1.26766 2.2041 22.6387 2.2041 66.3037V516.427C2.2041 557.271 23.0981 578.656 64.3961 578.656H516.42C557.727 578.656 578.649 558.34 578.649 516.427V66.3037C578.649 23.7027 557.727 1.26766 515.127 1.26766C515.124 1.26766 66.6331 1.12466 66.7751 1.26766V1.26766Z" fill="#111111" stroke="#EEEEEE" stroke-width="3.408"/>
<path d="M281.644 239.562C281.644 324.258 225.427 369.959 172.534 369.959C119.641 369.959 63.4238 324.258 63.4238 239.562C63.4238 158.431 111.085 64.1348 172.534 64.1348C233.983 64.1348 281.644 158.44 281.644 239.562V239.562Z" fill="white"/>
<path d="M497.686 311.647C482.792 249.042 435.642 233.455 409.756 234.199C408.024 234.249 406.426 234.373 405 234.552C375.375 238.108 342.587 299.395 334.363 344.673C333.179 351.206 332.056 357.362 330.972 362.815C323.92 396.546 324.329 415.907 306.53 435.428C292.359 450.978 262.497 496.808 263.543 508.56C265.154 530.798 325.544 530.185 337.631 529.838C337.631 529.838 337.631 529.838 337.637 529.838C352.532 529.41 372.114 523.281 383.995 518.881C450.157 497.235 540.032 433.294 547.063 383.285C549.772 364.021 543.292 336.113 497.685 311.647L497.686 311.647ZM397.769 293.442C404.208 278.671 419.475 272.227 432.531 278.716C445.611 286.061 450.415 303.941 443.967 318.711C437.528 333.482 422.269 339.926 409.213 333.437C396.133 326.092 391.329 308.212 397.769 293.442Z" fill="white"/>
</g>
<defs>
<clipPath id="clip0">
<path d="M0 0H580V580H0V0Z" fill="white"/>
</clipPath>
</defs>
</svg>
